X: 1
T: The Friendly Visit
R: hornpipe
M: 4/4
L: 1/8
K: Gmaj
|:BA|(3GFG DG BGBd|(3cBc AB cdef|g2 dg ecAG|FGAB cBAB|(3GFG DG BGBd|(3cBc AB cdef|gdBG FAdc|B2 G2 G2:||:(3GBd|g2 dB GBdg|e2 cA FGAg|f2 ed cdeg|(3fgf (3efe dcBA|(3GFG DG BGBd|(3cBc AB cdef|gdBG FAdc|B2 G2 G2:|


Tune 32	Setting 12427

